symbols/web/send_to_mobile/materialsymbolsoutlined/send_to_mobile_gradN25fill1_24px.svg

<svg xmlns="http://www.w3.org/2000/svg" height="24" width="24"><path d="M16.925 15.875 15.6 14.55l1.6-1.625h-5.15V11.05h5.15l-1.6-1.6 1.325-1.325L20.8 12Zm-9.85 6.875q-.775 0-1.325-.55-.55-.55-.55-1.325V3.125q0-.775.55-1.325.55-.55 1.325-.55h9.85q.775 0 1.325.55.55.55.55 1.325v3.85h-1.875V6.05h-9.85v11.9h9.85v-.925H18.8v3.85q0 .775-.55 1.325-.55.55-1.325.55Z"/></svg>

<svg xmlns="http://www.w3.org/2000/svg" height="24" width="24"><path d="M16.925 15.875 15.6 14.55 17.2 12.925H12.05V11.05H17.2L15.6 9.45L16.925 8.125L20.8 12ZM7.075 22.75Q6.3 22.75 5.75 22.2Q5.2 21.65 5.2 20.875V3.125Q5.2 2.35 5.75 1.8Q6.3 1.25 7.075 1.25H16.925Q17.7 1.25 18.25 1.8Q18.8 2.35 18.8 3.125V6.975H16.925V6.05H7.075V17.95H16.925V17.025H18.8V20.875Q18.8 21.65 18.25 22.2Q17.7 22.75 16.925 22.75Z"/></svg>
